!!!!SEGMENT: pl-gd--ee-1638--005-010_marenzio-luca--il-primo-libro-de-madrigali-spirituali-a-cinque-voci-vergine-saggia-e-pura.krn
!!!cenid: 15xx:963
!!!COM: Marenzio, Luca
!!!COM-rismID: pe30003955
!!!CDT: ~1553-1599/08/22
!!!CNT: Italian
!!!GTL: Il Primo libro de madrigali spirituali a cinque voci
!!!OTL: Vergine saggia e pura
!!!OMV: 010
!!!PDT: 1588
!!!AGN:
!!!YEC: Copyright 2022 Narodowy Instytut Fryderyka Chopina (https://polishscores.org)
!!!YEM: License CC-BY-4.0 (https://creativecommons.org/licenses/by/4.0)
!!!SMS-siglum: PL-GD
!!!SMS-shelfmark: Ee 1638
!!!SMS-shelfwork: 005-010 G
!!!SMS-variant:
!!!SMS-altvar:
!!!NIFC-rismSourceID: 1001202747
!!!NIFC-rismChildID: 990039269
!!!NIFC-islandoraID: pl-gd:57883
!!!URL-pdf-islandora: https://repozytorium.nifc.pl/islandora/object/pl-gd%3A57883/datastream/PDF/view
!!!URL-scan: https://polish.musicsources.pl/pl/lokalizacje/galeria/klocki-introligatorskie/655 @EN{Scan on Polish Music Sources Website} @PL{Skany w portalu Dziedzictwo Muzyki Polskiej w otwartym dostępie}
!!!IIIF: https://repozytorium.nifc.pl/islandora/object/plgd%3A57883/datastream/IIIF/view
!!!ONB-nifc: UWAGA: zbiór na stronach: Canto: s. 666-677, Alto: s. 514-525, Tenore: s. 362-373, Bassus: s. 210-221, Quinto: s. 58-69. Uwaga: utwory podzielone wg tytułów w spisach treści dostępnych na końcu każdej księgi głosowej.
!!!AIN: 1 alto 1 bass 1 soprn 1 tenor 1 vox
!!!key: G
**kern	**text	**mod-text	**kern	**text	**mod-text	**kern	**text	**mod-text	**kern	**text	**mod-text	**kern	**text	**mod-text
*part5	*	*	*part4	*	*	*part3	*	*	*part2	*	*	*part1	*	*
*staff5	*	*	*staff4	*	*	*staff3	*	*	*staff2	*	*	*staff1	*	*
*I"QVINTO	*	*	*I"BASSO	*	*	*I"TENORE	*	*	*I"ALTO	*	*	*I"CANTO	*	*
*mI"Quinto	*	*	*mI"Basso	*	*	*mI"Tenore	*	*	*mI"Alto	*	*	*mI"Soprano	*	*
*I'V 5	*	*	*I'B	*	*	*I'T	*	*	*I'A	*	*	*I'S	*	*
*ICvox	*	*	*ICvox	*	*	*ICvox	*	*	*ICvox	*	*	*ICvox	*	*
*Ivox	*	*	*Ibass	*	*	*Itenor	*	*	*Ialto	*	*	*Isoprn	*	*
*clefG2	*	*	*clefC4	*	*	*clefC2	*	*	*clefC1	*	*	*clefG2	*	*
*	*	*	*mclefF4	*	*	*mclefGv2	*	*	*mclefG2	*	*	*	*	*
*k[]	*	*	*k[]	*	*	*k[]	*	*	*k[]	*	*	*k[]	*	*
*G:	*	*	*G:	*	*	*G:	*	*	*G:	*	*	*G:	*	*
*M2/1	*	*	*M2/1	*	*	*M2/1	*	*	*M2/1	*	*	*M2/1	*	*
*met(C|)	*	*	*met(C|)	*	*	*met(C|)	*	*	*met(C|)	*	*	*met(C|)	*	*
=1-	=1-	=1-	=1-	=1-	=1-	=1-	=1-	=1-	=1-	=1-	=1-	=1-	=1-	=1-
*xywh-#63:3489,981,1,1	*	*	*xywh-#215:1144,510,3411,898	*	*	*xywh-#367:1367,534,3343,871	*	*	*xywh-#519:1102,497,3488,874	*	*	*xywh-#671:1227,468,3431,863	*	*
1.b	VEr-	Ver-	00r	.	.	1.g	VEr-	Ver-	00r	.	.	1.dd	VEr-	Ver-
2b/	-gi-	-gi-	.	.	.	2g\	-gi-	-gi-	.	.	.	2dd\	-gi-	-gi-
=2-	=2-	=2-	=2-	=2-	=2-	=2-	=2-	=2-	=2-	=2-	=2-	=2-	=2-	=2-
1b	-ne	-ne	.	.	.	1g	-ne	-ne	.	.	.	1dd	-ne	-ne
1cc	ſag-	sag-	.	.	.	1c	ſag-	sag-	.	.	.	1ee	ſag-	sag-
=3-	=3-	=3-	=3-	=3-	=3-	=3-	=3-	=3-	=3-	=3-	=3-	=3-	=3-	=3-
2b/	-gia e	-gia e	0r	.	.	2d/	-gia e	-gia e	0r	.	.	2dd\	-gia e	-gia e
2.a/	pu-	pu-	.	.	.	2.f\	pu-	pu-	.	.	.	2.cc\	pu-	pu-
4g/	.	.	.	.	.	4g\	.	.	.	.	.	4b/	.	.
2.g/	.	.	.	.	.	2e/	.	.	.	.	.	4b/	.	.
.	.	.	.	.	.	.	.	.	.	.	.	8a/	.	.
.	.	.	.	.	.	.	.	.	.	.	.	8g/	.	.
=4-	=4-	=4-	=4-	=4-	=4-	=4-	=4-	=4-	=4-	=4-	=4-	=4-	=4-	=4-
.	.	.	1r	.	.	1d	-ra	-ra,	1r	.	.	1a	.	.
!LO:SIC:s=8f#/:v	!	!	!	!	!	!	!	!	!	!	!	!	!	!
8f/	.	.	.	.	.	.	.	.	.	.	.	.	.	.
8e/	.	.	.	.	.	.	.	.	.	.	.	.	.	.
!LO:SIC:s=2f#/:v	!	!	!	!	!	!	!	!	!	!	!	!	!	!
2f#X/	.	.	.	.	.	.	.	.	.	.	.	.	.	.
2.g/	-ra	-ra,	1.G	VEr-	Ver-	2r	.	.	2r	.	.	1b	-ra	-ra,
.	.	.	.	.	.	2d/	Tra	Tra	1b\	VEr-	Ver-	.	.	.
4a/	.	.	.	.	.	.	.	.	.	.	.	.	.	.
=5-	=5-	=5-	=5-	=5-	=5-	=5-	=5-	=5-	=5-	=5-	=5-	=5-	=5-	=5-
4b/	.	.	.	.	.	4G/	l`a-	l`a-	.	.	.	2dd\	Tra	Tra
4cc\	.	.	.	.	.	4A/	-ni-	-ni-	.	.	.	.	.	.
!LO:SIC:v:t=custos gg	!	!	!	!	!	!	!	!	!	!	!	!	!	!
2dd\	.	.	2G/	-gi-	-gi-	4B/	-me	-me	2b\	-gi-	-gi-	4g/	l`a-	l`a-
.	.	.	.	.	.	4c/	be-	be-	.	.	.	4a/	-ni-	-ni-
!LO:LB:g=original	!	!	!	!	!	!	!	!	!	!	!	!	!	!
*xywh-#63:1272,1551,1,1	*	*	*	*	*	*	*	*	*	*	*	*	*	*
2r	.	.	1G	-ne	-ne	2d/	-a-	-a-	1b	-ne	-ne	4b/	-me	-me
.	.	.	.	.	.	.	.	.	.	.	.	4cc\	bea-	bea-
2gg\	Tra	Tra	.	.	.	2d/	-te	-te,	.	.	.	4dd\	-te	-te
!	!	!	!	!	!	!	!	!	!	!	!	!LO:SIC:v:t=custos ee	!	!
.	.	.	.	.	.	.	.	.	.	.	.	4b/	il-	il-
!	!	!	!	!	!	!	!	!	!	!	!	!LO:LB:g=original	!	!
=6-	=6-	=6-	=6-	=6-	=6-	=6-	=6-	=6-	=6-	=6-	=6-	=6-	=6-	=6-
*	*	*	*	*	*	*	*	*	*	*	*	*xywh-#671:1203,1104,3396,792	*	*
4cc\	l`a-	l`a-	1A	ſag-	sag-	2r	.	.	1cc	ſag-	sag-	4ee\	-luſ-	-lu-
4dd\	-ni-	-ni-	.	.	.	.	.	.	.	.	.	4dd\	-tre e-	-stre e-
!	!	!	!	!	!	!LO:SIC:v:t=custos d	!	!	!	!	!	!	!	!
*	*	*	*	*	*	*	*ij	*ij	*	*	*	*	*	*
4ee\	-me	-me	.	.	.	2a\	Tra	tra	.	.	.	2cc\	-le-	-let-
4ff\	bea-	bea-	.	.	.	.	.	.	.	.	.	.	.	.
!	!	!	!	!	!	!LO:LB:g=original	!	!	!	!	!	!	!	!
*	*	*	*	*	*	*xywh-#367:1378,1165,3321,707	*	*	*	*	*	*	*	*
4gg\	-te	-te	2G/	-gia e	-gia e	4d/	l`a-	l`a-	2b\	-gia e	-gia e	1dd	-ta	-ta,
4g/	il-	il-	.	.	.	4e/	-ni-	-ni-	.	.	.	.	.	.
4a/	-luſ-	-lu-	2.F/	pu-	pu-	4f\	-me	-me	2.a\	pu-	pu-	.	.	.
4b/	-tre e-	-stre e-	.	.	.	4d/	be-	be-	.	.	.	.	.	.
=7-	=7-	=7-	=7-	=7-	=7-	=7-	=7-	=7-	=7-	=7-	=7-	=7-	=7-	=7-
2.cc\	-let-	-let-	.	.	.	2c/	-a-	-a-	.	.	.	2r	.	.
.	.	.	4E/	.	.	.	.	.	4g/	.	.	.	.	.
*	*	*	*	*	*	*	*	*	*	*	*	*	*ij	*ij
.	.	.	4E/	.	.	4e/	-te	-te,	4g/	.	.	2cc\	Tra	tra
8dd\	.	.	8D/	.	.	4a\	Tra	tra	8f/	.	.	.	.	.
8ee\	.	.	8C/	.	.	.	.	.	8e/	.	.	.	.	.
1ff	.	.	1D	.	.	4a\	l`a-	l`a-	4d/	.	.	4f/	l`a-	l`a-
.	.	.	.	.	.	4g\	-ni-	-ni-	4e/	.	.	4g/	-ni-	-ni-
.	.	.	.	.	.	4f\	-me	-me	2f/	.	.	4a/	-me	-me
.	.	.	.	.	.	4d/	bea-	bea-	.	.	.	4b/	bea-	bea-
=8-	=8-	=8-	=8-	=8-	=8-	=8-	=8-	=8-	=8-	=8-	=8-	=8-	=8-	=8-
2ee\	-ta	-ta,	2C/	-ra	-ra,	4e/	-te	-te	2g/	-ra	-ra,	4cc\	-te	-te
*	*ij	*ij	*	*	*	*	*Xij	*Xij	*	*	*	*	*	*
.	.	.	.	.	.	4f\	il-	il-	.	.	.	4dd\	il-	il-
4r	.	.	2c\	Tra	Tra	4g\	-luſ-	-lu-	4r	.	.	4ee\	-luſ-	-lu-
4ee\	Tra	tra	.	.	.	4e/	-tre e-	-stre e-	4g/	Tra	Tra	4cc\	-tre e-	-stre e-
4a/	l`a-	l`a-	4F/	l`a-	l`a-	2c/	-let-	-let-	2.cc\	l`a-	l`a-	2ff\	-le-	-let-
!	!	!	!LO:SIC:v:t=custos A	!	!	!	!	!	!	!	!	!	!	!
4b/	-ni-	-ni-	4G/	-ni-	-ni-	.	.	.	.	.	.	.	.	.
!	!	!	!LO:LB:g=original	!	!	!	!	!	!	!	!	!	!	!
*	*	*	*xywh-#215:1144,1202,3447,740	*	*	*	*	*	*	*	*	*	*	*
4cc\	-me	-me	4A/	-me	-me	2c/	-ta	-ta,	.	.	.	2ee\	-ta	-ta,
!LO:SIC:v:t=custos ee	!	!	!	!	!	!	!	!	!LO:SIC:v:t=custos a	!	!	!	!	!
4dd\	bea-	bea-	4B\	bea-	bea-	.	.	.	4b\	-ni-	-ni-	.	.	.
*	*	*	*	*	*	*	*	*	*	*	*	*	*Xij	*Xij
!LO:LB:g=original	!	!	!	!	!	!	!	!	!LO:LB:g=original	!	!	!	!	!
=9-	=9-	=9-	=9-	=9-	=9-	=9-	=9-	=9-	=9-	=9-	=9-	=9-	=9-	=9-
*xywh-#63:1260,2072,1,1	*	*	*	*	*	*	*	*	*xywh-#519:1135,1221,3391,691	*	*	*	*	*
4ee\	-te	-te	4c\	-te	-te	0r	.	.	4a\	-me	-me	4r	.	.
4ff\	il-	il-	4d\	il-	il-	.	.	.	4a\	bea-	bea-	4dd\	il-	il-
4gg\	-luſ-	-lu-	4e\	-luſ-	-lu-	.	.	.	4g/	-te	-te	4b/	-luſ-	-lu-
4aa\	-tre e-	-stre e-	4c\	-tre e-	-stre e-	.	.	.	4cc\	il-	il-	4ee\	-tre e-	-stre e-
!	!	!	!	!	!	!	!	!	!	!	!	!LO:SIC:v:t=custos dd	!	!
4ff#X\	-let-	-let-	1d	-let-	-let-	.	.	.	4a\	-luſ-	-lu-	1dd	-let-	-let-
2gg\	.	.	.	.	.	.	.	.	4g/	-tre e-	-stre e-	.	.	.
.	.	.	.	.	.	.	.	.	2a\	-let-	-let-	.	.	.
!LO:SIC:s=4ff#\:v	!	!	!	!	!	!	!	!	!	!	!	!	!	!
4ff#X\	.	.	.	.	.	.	.	.	.	.	.	.	.	.
!	!	!	!	!	!	!	!	!	!	!	!	!LO:LB:g=original	!	!
=10-	=10-	=10-	=10-	=10-	=10-	=10-	=10-	=10-	=10-	=10-	=10-	=10-	=10-	=10-
*	*	*	*	*	*	*	*	*	*	*	*	*xywh-#671:1191,1680,3492,720	*	*
2gg\	-ta	-ta,	1G	-ta	-ta,	2r	.	.	1b	-ta	-ta,	2dd\	-ta	-ta,
*	*Xij	*Xij	*	*	*	*	*	*	*	*	*	*	*	*
2dd\	An-	An-	.	.	.	2g\	An-	An-	.	.	.	2b/	An-	An-
2.ee\	-ge-	-ge-	1r	.	.	2.c/	-ge-	-ge-	1r	.	.	2.cc\	-ge-	-ge-
!	!	!	!	!	!	!LO:SIC:v:t=custos g	!	!	!	!	!	!	!	!
4ee\	-li-	-li-	.	.	.	4c/	-li-	-li-	.	.	.	4cc\	-li-	-li-
!	!	!	!	!	!	!LO:LB:g=original	!	!	!	!	!	!	!	!
=11-	=11-	=11-	=11-	=11-	=11-	=11-	=11-	=11-	=11-	=11-	=11-	=11-	=11-	=11-
*	*	*	*	*	*	*xywh-#367:1356,1731,3332,751	*	*	*	*	*	*	*	*
2dd\	-ca	-ca,	2r	.	.	2g\	-ca	-ca,	2r	.	.	1b	-ca	-ca
*	*	*	*	*	*	*	*ij	*ij	*	*	*	*	*	*
2b/	An-	An-	2G/	An-	An-	2d/	An-	An-	2g/	An-	An-	.	.	.
2.cc\	-ge-	-ge-	2.C/	-ge-	-ge-	2.e/	-ge-	-ge-	2.g/	-ge-	-ge-	1r	.	.
4cc\	-li-	-li-	4C/	-li-	-li-	4e/	-li-	-li-	4g/	-li-	-li-	.	.	.
=12-	=12-	=12-	=12-	=12-	=12-	=12-	=12-	=12-	=12-	=12-	=12-	=12-	=12-	=12-
1b	-ca	-ca	1G	-ca	-ca	1d	-ca	-ca	1g	-ca	-ca	2r	.	.
.	.	.	.	.	.	.	.	.	.	.	.	2.dd\	di	di
*	*	*	*	*	*	*	*Xij	*Xij	*	*	*	*	*	*
2.a/	di	di	2.D/	di	di	2.d/	di	di	2.f/	di	di	.	.	.
.	.	.	.	.	.	.	.	.	.	.	.	4dd\	mor-	mor-
.	.	.	.	.	.	.	.	.	.	.	.	2dd\	-tal	-tal
4a/	mor-	mor-	4D/	mor-	mor-	4d/	mor-	mor-	4f/	mor-	mor-	.	.	.
=13-	=13-	=13-	=13-	=13-	=13-	=13-	=13-	=13-	=13-	=13-	=13-	=13-	=13-	=13-
2a/	-tal	-tal	2D/	-tal	-tal	2d/	-tal	-tal	2f/	-tal	-tal	2ff\	mac-	mac-
1cc#X	mac-	mac-	1A	mac-	mac-	1e	mac-	mac-	2a\	mac-	mac-	1ee	-chia	-chia
.	.	.	.	.	.	.	.	.	1a	-chia	-chia	.	.	.
!LO:SIC:v:t=custos ee	!	!	!	!	!	!	!	!	!	!	!	!	!	!
2dd\	-chia	-chia	2D/	-chia	-chia	2f\	-chia	-chia	.	.	.	1dd\	net-	net-
!LO:LB:g=original	!	!	!	!	!	!	!	!	!	!	!	!	!	!
=14-	=14-	=14-	=14-	=14-	=14-	=14-	=14-	=14-	=14-	=14-	=14-	=14-	=14-	=14-
*xywh-#63:1345,2654,1,1	*	*	*	*	*	*	*	*	*	*	*	*	*	*
0ee	net-	net-	0A	net-	net-	0e	net-	net-	0a	net-	net-	.	.	.
.	.	.	.	.	.	.	.	.	.	.	.	4cc#X\	.	.
.	.	.	.	.	.	.	.	.	.	.	.	4b\	.	.
!	!	!	!	!	!	!	!	!	!	!	!	!LO:SIC:s=1cc#:v	!	!
.	.	.	.	.	.	.	.	.	.	.	.	1cc#X	.	.
=15-	=15-	=15-	=15-	=15-	=15-	=15-	=15-	=15-	=15-	=15-	=15-	=15-	=15-	=15-
!	!	!	!LO:SIC:v:t=custos G	!	!	!	!	!	!LO:SIC:v:t=custos b	!	!	!	!	!
1ff#X	-ta	-ta,	1D	-ta	-ta,	0d	-ta	-ta,	1a	-ta	-ta,	0dd	-ta	-ta,
!	!	!	!LO:LB:g=original	!	!	!	!	!	!LO:LB:g=original	!	!	!	!	!
*	*	*	*xywh-#215:1193,1712,3411,764	*	*	*	*	*	*xywh-#519:1146,1717,3402,691	*	*	*	*	*
4r	.	.	2G/	Ti	Ti	.	.	.	4r	.	.	.	.	.
4gg\	Ti	Ti	.	.	.	.	.	.	4b\	Ti	Ti	.	.	.
4gg\	rin-	rin-	4G/	rin-	rin-	.	.	.	4b\	rin-	rin-	.	.	.
4gg\	-chiu-	-chiu-	4G/	-chiu-	-chiu-	.	.	.	4b\	-chiu-	-chiu-	.	.	.
=16-	=16-	=16-	=16-	=16-	=16-	=16-	=16-	=16-	=16-	=16-	=16-	=16-	=16-	=16-
4ccny\	-deſ-	-de-	4A/	-deſ-	-de-	1r	.	.	4ee\	-deſ-	-de-	1r	.	.
4dd\	-ti in	-sti in	4B\	-ti in	-sti in	.	.	.	4dd\	-ti in	-sti in	.	.	.
2ee\	cel-	cel-	2c\	cel-	cel-	.	.	.	2cc\	cel-	cel-	.	.	.
4dd\	-la	-la	1G	-la	-la,	4r	.	.	2b\	-la	-la,	4r	.	.
4b/	Per	Per	.	.	.	4g\	Per	Per	.	.	.	4dd\	Per	Per
4b/	Dio	Dio	.	.	.	4g\	Dio	Dio	2r	.	.	4dd\	Dio	Dio
!	!	!	!	!	!	!	!	!	!	!	!	!LO:SIC:v:t=custos ee	!	!
4b/	ſer-	ser-	.	.	.	4g\	ſer-	ser-	.	.	.	4dd\	ſer-	ser-
!	!	!	!	!	!	!	!	!	!	!	!	!LO:LB:g=original	!	!
=17-	=17-	=17-	=17-	=17-	=17-	=17-	=17-	=17-	=17-	=17-	=17-	=17-	=17-	=17-
*	*	*	*	*	*	*	*	*	*	*	*	*xywh-#671:1227,2256,3444,660	*	*
4cc\	-uir	-vir	1r	.	.	4c/	-uir	-vir	1r	.	.	4ee\	-vir	-vir
4a/	an-	an-	.	.	.	4d/	an-	an-	.	.	.	4ff\	an-	an-
2g/	-cel-	-cel-	.	.	.	2e/	-cel-	-cel-	.	.	.	2.gg\	-cel-	-cel-
!	!	!	!	!	!	!LO:SIC:v:t=custos d	!	!	!	!	!	!	!	!
1a	-la	-la,	4r	.	.	1d	-la	-la,	4r	.	.	.	.	.
*	*	*	*	*	*	*	*	*	*	*ij	*ij	*	*	*
!	!	!	!	!	!	!	!	!	!	!	!	!LO:SIC:s=8ff#\:v	!	!
.	.	.	4D/	Ti	ti	.	.	.	4dd\	Ti	ti	8ff\	.	.
.	.	.	.	.	.	.	.	.	.	.	.	8ee\	.	.
!	!	!	!	!	!	!	!	!	!	!	!	!LO:SIC:s=2ff#\:v	!	!
.	.	.	4D/	rin-	rin-	.	.	.	4dd\	rin-	rin-	2ff#X\	.	.
.	.	.	4D/	-chiu-	-chiu-	.	.	.	4dd\	-chiu-	-chiu-	.	.	.
!	!	!	!	!	!	!LO:LB:g=original	!	!	!	!	!	!	!	!
=18-	=18-	=18-	=18-	=18-	=18-	=18-	=18-	=18-	=18-	=18-	=18-	=18-	=18-	=18-
*	*	*	*	*	*	*xywh-#367:1302,2287,3397,686	*	*	*	*	*	*	*	*
2r	.	.	4E/	-deſ-	-de-	1r	.	.	4g/	-deſ-	-de-	1gg	-la	-la,
.	.	.	4F/	-ti in	-sti in	.	.	.	4a\	-ti in	-sti in	.	.	.
4r	.	.	2G/	cel-	cel-	.	.	.	2b\	cel-	cel-	.	.	.
4dd\	Per	per	.	.	.	.	.	.	.	.	.	.	.	.
2ffny\	Dio	Dio	1D	-la	-la	4r	.	.	2a\	-la	-la	4r	.	.
*	*	*	*	*	*	*	*ij	*ij	*	*Xij	*Xij	*	*ij	*ij
.	.	.	.	.	.	4d/	Per	per	.	.	.	4dd\	Per	per
!LO:SIC:v:t=custos ee	!	!	!	!	!	!	!	!	!	!	!	!	!	!
2ff\	ſer-	ser-	.	.	.	4d/	Dio	Dio	4r	.	.	4dd\	Dio	Dio
.	.	.	.	.	.	4d/	ſer-	ser-	4a\	Per	Per	4dd\	ſer-	ser-
!LO:LB:g=original	!	!	!	!	!	!	!	!	!	!	!	!	!	!
=19-	=19-	=19-	=19-	=19-	=19-	=19-	=19-	=19-	=19-	=19-	=19-	=19-	=19-	=19-
*xywh-#63:1381,3259,1,1	*	*	*	*	*	*	*	*	*	*	*	*	*	*
2ee\	-uir	-vir	0r	.	.	4e/	-uir	-vir	2cc\	Dio	Dio	4g/	-vir	-vir
.	.	.	.	.	.	4f\	an-	an-	.	.	.	4a/	an-	an-
2dd\	an-	an-	.	.	.	2g\	-cel-	-cel-	4b\	ſer-	ser-	2b/	-cel-	-cel-
.	.	.	.	.	.	.	.	.	2g/	-vir	-vir	.	.	.
1dd	-cel-	-cel-	.	.	.	1d	-la	-la.	.	.	.	1a	-la	-la.
.	.	.	.	.	.	.	.	.	4f#X/	an-	an-	.	.	.
.	.	.	.	.	.	.	.	.	2f#/	-cel-	-cel-	.	.	.
*	*	*	*	*	*	*	*Xij	*Xij	*	*	*	*	*Xij	*Xij
=20-	=20-	=20-	=20-	=20-	=20-	=20-	=20-	=20-	=20-	=20-	=20-	=20-	=20-	=20-
4.b/	-la	.	2G/	Trion-	Trion-	1r	.	.	2g/	-la	-la.	4r	.	.
.	.	.	.	.	.	.	.	.	.	.	.	4dd\	Trion-	Trion-
8a/	.	.	.	.	.	.	.	.	.	.	.	.	.	.
2g/	.	-la.	4E/	-fa	-fa	.	.	.	4r	.	.	4gg\	-fa	-fa
.	.	.	4C/	in	in	.	.	.	4cc\	Trion-	Trion-	4ee\	in	in
4r	.	.	2G/	ter-	ter-	4r	.	.	4cc\	-fa	-fa	2dd\	ter-	ter-
4dd\	Trion-	Trion-	.	.	.	4g\	Trion-	Trion-	4b\	in	in	.	.	.
!	!	!	!LO:SIC:v:t=custos G	!	!	!	!	!	!	!	!	!LO:SIC:v:t=custos dd	!	!
4gg\	-fa	-fa	2C/	-ra	-ra,	4e/	-fa	-fa	4.g/	ter-	ter-	2ccny\	-ra	-ra,
4ee\	in	in	.	.	.	4c/	in	in	.	.	.	.	.	.
.	.	.	.	.	.	.	.	.	8a\	.	.	.	.	.
!	!	!	!LO:LB:g=original	!	!	!	!	!	!	!	!	!LO:LB:g=original	!	!
=21-	=21-	=21-	=21-	=21-	=21-	=21-	=21-	=21-	=21-	=21-	=21-	=21-	=21-	=21-
*	*	*	*xywh-#215:1144,2319,3399,691	*	*	*	*	*	*	*	*	*xywh-#671:1143,2772,3504,732	*	*
2dd\	ter-	ter-	4r	.	.	2g\	ter-	ter-	2b\	.	.	4r	.	.
*	*	*	*	*ij	*ij	*	*	*	*	*	*	*	*ij	*ij
.	.	.	4G/	Trion-	trion-	.	.	.	.	.	.	4dd\	Trion-	trion-
2ee\	-ra	-ra,	4E/	-fa	-fa	2g\	-ra	-ra,	4b\	-ra	-ra,	4gg\	-fa	-fa
.	.	.	4C/	in	in	.	.	.	4cc\	Trion-	trion-	4ee\	in	in
4r	.	.	2G/	ter-	ter-	4r	.	.	4cc\	-fa	-fa	2dd\	ter-	ter-
4dd\	Trion-	trion-	.	.	.	4g\	Trion-	trion-	4b\	in	in	.	.	.
4gg\	-fa	-fa	2C/	-ra	-ra	4e/	-fa	-fa	1cc\	ter-	ter-	2ee\	-ra	-ra
4ee\	in	in	.	.	.	4c/	in	in	.	.	.	.	.	.
*	*	*	*	*Xij	*Xij	*	*	*	*	*	*	*	*Xij	*Xij
=22-	=22-	=22-	=22-	=22-	=22-	=22-	=22-	=22-	=22-	=22-	=22-	=22-	=22-	=22-
1dd	ter-	ter-	2r	.	.	1g	ter-	ter-	.	.	.	2r	.	.
.	.	.	2G/	hor	hor	.	.	.	2b\	-ra hor	-ra hor	2dd\	hor	hor
!	!	!	!	!	!	!LO:SIC:v:t=custos f	!	!	!	!	!	!	!	!
2dd\	-ra hor	-ra hor	1.D	ſot-	sot-	2f\	-ra	-ra	1.a	ſot-	sot-	1.ffny	ſot-	sot-
!	!	!	!	!	!	!LO:LB:g=original	!	!	!	!	!	!	!	!
*	*	*	*	*	*	*xywh-#367:1323,2810,3375,762	*	*	*	*	*	*	*	*
1dd\	ſot-	sot-	.	.	.	1f\	ſot-	sot-	.	.	.	.	.	.
=23-	=23-	=23-	=23-	=23-	=23-	=23-	=23-	=23-	=23-	=23-	=23-	=23-	=23-	=23-
2dd\	-to oſ-	-to o-	2D/	-to oſ-	-to o-	2d/	-to oſ-	-to o-	2a\	-to oſ-	-to o-	2ff\	-to oſ-	-to o-
*col	*	*	*col	*	*	*col	*	*	*col	*	*	*col	*	*
0cc	-cu-	-scu-	0A	-cu-	-scu-	0e	-cu-	-scu-	0a	-cu-	-scu-	0ee	-cu-	-scu-
=24-	=24-	=24-	=24-	=24-	=24-	=24-	=24-	=24-	=24-	=24-	=24-	=24-	=24-	=24-
!LO:SIC:v:t=custos a	!	!	!	!	!	!	!	!	!LO:SIC:v:t=custos cc	!	!	!	!	!
1b	-ro	-ro	1G#X	-ro	-ro	1e	-ro	-ro	1b	-ro	-ro	1ee	-ro	-ro
*Xcol	*	*	*Xcol	*	*	*Xcol	*	*	*Xcol	*	*	*Xcol	*	*
!LO:LB:g=original	!	!	!	!	!	!	!	!	!LO:LB:g=original	!	!	!	!	!
=25-	=25-	=25-	=25-	=25-	=25-	=25-	=25-	=25-	=25-	=25-	=25-	=25-	=25-	=25-
*xywh-#63:1442,3768,1,1	*	*	*	*	*	*	*	*	*xywh-#519:1113,2290,3445,680	*	*	*	*	*
2.a/	ve-	ve-	0A	ve-	ve-	2.e/	ve-	ve-	2.cc\	ve-	ve-	0ee	vel-	ve-
4b/	.	.	.	.	.	4d/	.	.	4b\	.	.	.	.	.
1cc	.	.	.	.	.	4c/	.	.	4a\	.	.	.	.	.
.	.	.	.	.	.	4B/	.	.	4g/	.	.	.	.	.
.	.	.	.	.	.	2A/	.	.	1a\	.	.	.	.	.
=26-	=26-	=26-	=26-	=26-	=26-	=26-	=26-	=26-	=26-	=26-	=26-	=26-	=26-	=26-
0b	-lo	-lo,	0E	-lo	-lo,	0B	-lo	-lo,	.	.	.	0.ee	-lo	-lo,
.	.	.	.	.	.	.	.	.	4g#X/	.	.	.	.	.
.	.	.	.	.	.	.	.	.	4f#X/	.	.	.	.	.
!	!	!	!	!	!	!	!	!	!LO:SIC:s=1g#:v	!	!	!	!	!
.	.	.	.	.	.	.	.	.	1g#X	-lo	-lo,	.	.	.
=27-	=27-	=27-	=27-	=27-	=27-	=27-	=27-	=27-	=27-	=27-	=27-	=27-	=27-	=27-
2e/	Poſ-	Po-	2A/	Poſ-	Po-	4r	.	.	4r	.	.	.	.	.
.	.	.	.	.	.	2c/	Poſ-	Po-	2a\	Poſ-	Po-	.	.	.
2e/	-cia	-scia	2A/	-cia	-scia	.	.	.	.	.	.	.	.	.
.	.	.	.	.	.	4c/	-cia	-scia	4a\	-cia	-scia	.	.	.
2g/	lie-	lie-	2Gny/	lie-	lie-	2d/	lie-	lie-	2b\	lie-	lie-	1r	.	.
4g/	-to	-to	4G/	-to	-to	4d/	-to	-to	4b\	-to	-to	.	.	.
4g/	di	di	4G/	di	di	4d/	di	di	4b\	di	di	.	.	.
=28-	=28-	=28-	=28-	=28-	=28-	=28-	=28-	=28-	=28-	=28-	=28-	=28-	=28-	=28-
4a/	te	te	4F/	te	te	2f\	te	te	2cc\	te	te	2a/	poſ-	Po-
!	!	!	!LO:SIC:v:t=custos F	!	!	!	!	!	!	!	!	!	!	!
4cc\	gio-	gio-	4F/	gio-	gio-	.	.	.	.	.	.	.	.	.
!	!	!	!LO:LB:g=original	!	!	!	!	!	!	!	!	!	!	!
*	*	*	*xywh-#215:1047,2805,3520,752	*	*	*	*	*	*	*	*	*	*	*
8cc\	-i-	-i-	8F/	-i-	-i-	4r	.	.	4r	.	.	2a/	-cia	-scia
8b\	.	.	8G/	.	.	.	.	.	.	.	.	.	.	.
8cc\	.	.	8A\	.	.	4c/	gioi-	gio-	4fny/	gioi-	gio-	.	.	.
8dd\	.	.	8B\	.	.	.	.	.	.	.	.	.	.	.
1ee	.	.	2c\	.	.	8c/	.	-i-	8e/	.	-i-	2g/	lie-	lie-
.	.	.	.	.	.	8d/	.	.	8d/	.	.	.	.	.
.	.	.	.	.	.	8e/	.	.	8c/	.	.	.	.	.
!	!	!	!	!	!	!LO:SIC:v:t=custos f	!	!	!	!	!	!	!	!
.	.	.	.	.	.	8f\	.	.	8d/	.	.	.	.	.
!	!	!	!	!	!	!LO:LB:g=original	!	!	!	!	!	!	!	!
*	*	*	*	*	*	*xywh-#367:1421,3376,3288,729	*	*	*	*	*	*	*	*
.	.	.	2C/	-ſca`l	-sca'l	4g\	.	.	8e/	.	.	4g/	-to	-to
!	!	!	!	!	!	!	!	!	!LO:SIC:v:t=custos g	!	!	!	!	!
.	.	.	.	.	.	.	.	.	8f/	.	.	.	.	.
!	!	!	!	!	!	!	!	!	!LO:LB:g=original	!	!	!	!	!
*	*	*	*	*	*	*	*	*	*xywh-#519:1189,2851,3359,723	*	*	*	*	*
.	.	.	.	.	.	4e/	-ſca	-sca,	8gny\	.	.	4g/	di	di
.	.	.	.	.	.	.	.	.	8e/	.	.	.	.	.
=29-	=29-	=29-	=29-	=29-	=29-	=29-	=29-	=29-	=29-	=29-	=29-	=29-	=29-	=29-
1cc	-ſca	-sca	2.F/	cie-	cie-	1r	.	.	2a\	.	.	4f/	te	te
.	.	.	.	.	.	.	.	.	.	.	.	4ff\	gioi-	gio-
!	!	!	!	!	!	!	!	!	!	!	!	!LO:SIC:v:t=custos ee	!	!
.	.	.	.	.	.	.	.	.	2a\	-ſca`l	-sca'l	4ff\	.	-i-
!	!	!	!	!	!	!	!	!	!	!	!	!LO:LB:g=original	!	!
*	*	*	*	*	*	*	*	*	*	*	*	*xywh-#671:1191,3396,3384,684	*	*
.	.	.	4G/	.	.	.	.	.	.	.	.	8ee\	.	.
.	.	.	.	.	.	.	.	.	.	.	.	8dd\	.	.
*	*	*	*	*	*	*	*ij	*ij	*	*	*	*	*	*
1r	.	.	1A	.	.	2e/	Poſ-	po-	1a	cie-	cie-	4cc#X\	.	.
.	.	.	.	.	.	.	.	.	.	.	.	2dd\	ſcal	-sca'l
.	.	.	.	.	.	2e/	-cia	-scia	.	.	.	.	.	.
!	!	!	!	!	!	!	!	!	!	!	!	!LO:SIC:s=4cc#\:v	!	!
.	.	.	.	.	.	.	.	.	.	.	.	4cc#X\	cie-	cie-
=30-	=30-	=30-	=30-	=30-	=30-	=30-	=30-	=30-	=30-	=30-	=30-	=30-	=30-	=30-
4r	.	.	1D	-lo	-lo	2d/	lie-	lie-	2a\	-lo	-lo,	1dd	-lo	-lo,
4fny/	gioi-	gio-	.	.	.	.	.	.	.	.	.	.	.	.
8f/	.	-i-	.	.	.	4d/	-to	-to	2r	.	.	.	.	.
8g/	.	.	.	.	.	.	.	.	.	.	.	.	.	.
8a/	.	.	.	.	.	4d/	di	di	.	.	.	.	.	.
8b/	.	.	.	.	.	.	.	.	.	.	.	.	.	.
!LO:SIC:v:t=custos ee	!	!	!	!	!	!	!	!	!	!	!	!	!	!
4cc\	.	.	1r	.	.	4c/	te	te	2a\	Poſ-	po-	4r	.	.
!LO:LB:g=original	!	!	!	!	!	!	!	!	!	!	!	!	!	!
*xywh-#63:1539,4532,1,1	*	*	*	*	*	*	*	*	*	*	*	*	*	*
4ee\	-ſca`l	-sca'l	.	.	.	4A/	gioi-	gio-	.	.	.	4ccny\	gioi-	gio-
4.ee\	cie-	cie-	.	.	.	8A/	.	-i-	2a\	-cia	-scia	8cc\	.	-i-
.	.	.	.	.	.	8B/	.	.	.	.	.	8dd\	.	.
.	.	.	.	.	.	8c/	.	.	.	.	.	8ee\	.	.
16dd\	.	.	.	.	.	8d/	.	.	.	.	.	8ff\	.	.
16cc\	.	.	.	.	.	.	.	.	.	.	.	.	.	.
=31-	=31-	=31-	=31-	=31-	=31-	=31-	=31-	=31-	=31-	=31-	=31-	=31-	=31-	=31-
2b/	.	.	2E/	poſ-	po-	2e/	-ſca	-sca	2g/	lie-	lie-	4gg\	.	.
.	.	.	.	.	.	.	.	.	.	.	.	4g/	-ſcal	-sca'l
*	*	*	*	*	*	*	*Xij	*Xij	*	*	*	*	*	*
2ee\	-lo	-lo,	2E/	-cia	-scia	2e/	il	il	4g/	-to	-to	8b/	cie-	cie-
.	.	.	.	.	.	.	.	.	.	.	.	8a/	.	.
.	.	.	.	.	.	.	.	.	4g/	di	di	8b/	.	.
.	.	.	.	.	.	.	.	.	.	.	.	8cc\	.	.
1r	.	.	2D/	lie-	lie-	4.a\	cie-	cie-	4f/	te	te	1dd	.	.
.	.	.	.	.	.	.	.	.	4f/	gioi-	gio-	.	.	.
.	.	.	.	.	.	8g\	.	.	.	.	.	.	.	.
.	.	.	4D/	-to	-to	2f\	.	.	8f/	.	-i-	.	.	.
.	.	.	.	.	.	.	.	.	8g/	.	.	.	.	.
.	.	.	4D/	di	di	.	.	.	8a\	.	.	.	.	.
.	.	.	.	.	.	.	.	.	8b\	.	.	.	.	.
=32-	=32-	=32-	=32-	=32-	=32-	=32-	=32-	=32-	=32-	=32-	=32-	=32-	=32-	=32-
2ee\	Poſ-	po-	4C/	te	te	4e/	-lo	-lo,	2cc\	.	.	2gg\	-lo	-lo,
.	.	.	4C/	gioi-	gio-	2cc\	Poſ-	po-	.	.	.	.	.	.
2ee\	-cia	-scia	8C/	.	-i-	.	.	.	1g	-ſca il	-sca'l	4r	.	.
.	.	.	8D/	.	.	.	.	.	.	.	.	.	.	.
.	.	.	8E/	.	.	4cc\	-cia	-scia	.	.	.	4g/	gioi-	gio-
!	!	!	!LO:SIC:v:t=custos G	!	!	!	!	!	!	!	!	!	!	!
.	.	.	8F/	.	.	.	.	.	.	.	.	.	.	.
!	!	!	!LO:LB:g=original	!	!	!LO:SIC:v:t=custos b	!	!	!	!	!	!	!	!
*	*	*	*xywh-#215:1120,3388,3399,655	*	*	*	*	*	*	*	*	*	*	*
2dd\	lie-	lie-	1G	.	.	2b\	lie-	lie-	.	.	.	8g/	.	-i-
.	.	.	.	.	.	.	.	.	.	.	.	8a/	.	.
.	.	.	.	.	.	.	.	.	.	.	.	8b/	.	.
!	!	!	!	!	!	!	!	!	!	!	!	!LO:SIC:v:t=custos dd	!	!
.	.	.	.	.	.	.	.	.	.	.	.	8cc\	.	.
!	!	!	!	!	!	!LO:LB:g=original	!	!	!	!	!	!LO:LB:g=original	!	!
*	*	*	*	*	*	*xywh-#367:1291,3920,3419,740	*	*	*	*	*	*xywh-#671:1131,3876,3419,732	*	*
4dd\	-to	-to	.	.	.	4b\	-to	-to	2g/	cie-	cie-	4dd\	.	.
4dd\	di	di	.	.	.	4b\	di	di	.	.	.	4b/	-ſcal	-sca'l
=33-	=33-	=33-	=33-	=33-	=33-	=33-	=33-	=33-	=33-	=33-	=33-	=33-	=33-	=33-
!	!	!	!	!	!	!	!	!	!LO:SIC:v:t=custos d	!	!	!	!	!
4cc\	te	te	1A	-ſca`l	-sca'l	1a	te	te	1e	-lo	-lo,	4.ee\	cie-	cie-
4cc\	gioi-	gio-	.	.	.	.	.	.	.	.	.	.	.	.
.	.	.	.	.	.	.	.	.	.	.	.	8dd\	.	.
8cc\	.	-i-	.	.	.	.	.	.	.	.	.	2cc\	.	.
8dd\	.	.	.	.	.	.	.	.	.	.	.	.	.	.
8ee\	.	.	.	.	.	.	.	.	.	.	.	.	.	.
8ff\	.	.	.	.	.	.	.	.	.	.	.	.	.	.
!	!	!	!	!	!	!	!	!	!LO:LB:g=original	!	!	!	!	!
*	*	*	*	*	*	*	*	*	*xywh-#519:1081,3294,3510,799	*	*	*	*	*
2gg\	.	.	2.G/	cie-	cie-	4r	.	.	2r	.	.	1b	-lo	-lo,
.	.	.	.	.	.	4d/	gioi-	gio-	.	.	.	.	.	.
2dd\	-ſca`l	-sca'l	.	.	.	8d/	.	-i-	4r	.	.	.	.	.
.	.	.	.	.	.	8e/	.	.	.	.	.	.	.	.
.	.	.	8F/	.	.	8f\	.	.	4d/	gioi-	gio-	.	.	.
.	.	.	8E/	.	.	8g\	.	.	.	.	.	.	.	.
=34-	=34-	=34-	=34-	=34-	=34-	=34-	=34-	=34-	=34-	=34-	=34-	=34-	=34-	=34-
0dd	cie-	cie-	0D	.	.	4.a\	.	.	8d/	.	-i-	4r	.	.
.	.	.	.	.	.	.	.	.	8e/	.	.	.	.	.
*	*	*	*	*	*	*	*	*	*	*	*	*	*ij	*ij
.	.	.	.	.	.	.	.	.	8f/	.	.	4a/	gioi-	gio-
.	.	.	.	.	.	8g\	.	.	8g/	.	.	.	.	.
.	.	.	.	.	.	8f\	.	.	2.a\	.	.	8a/	.	-i-
.	.	.	.	.	.	8e\	.	.	.	.	.	8g/	.	.
.	.	.	.	.	.	2d/	.	.	.	.	.	8f/	.	.
.	.	.	.	.	.	.	.	.	.	.	.	8e/	.	.
.	.	.	.	.	.	.	.	.	.	.	.	4f#X/	-ſcal	-sca'l
.	.	.	.	.	.	4B/	-ſca`l	-sca'l	2g/	-ſcal	-sca'l	4g/	cie-	cie-
.	.	.	.	.	.	2A/	cie-	cie-	.	.	.	2a/	.	.
.	.	.	.	.	.	.	.	.	4f#X/	cie-	cie-	.	.	.
=35-	=35-	=35-	=35-	=35-	=35-	=35-	=35-	=35-	=35-	=35-	=35-	=35-	=35-	=35-
00dd	-lo.	-lo.	00G	-lo.	-lo.	00G	-lo.	-lo.	00g	-lo.	-lo.	00b	-lo	-lo.
*	*	*	*	*	*	*	*	*	*	*	*	*	*Xij	*Xij
==	==	==	==	==	==	==	==	==	==	==	==	==	==	==
*-	*-	*-	*-	*-	*-	*-	*-	*-	*-	*-	*-	*-	*-	*-
!!!system-decoration: [(s1,s2,s3,s4,s5)]
!!!filter-modern: tie -s | humtr -p | sic -sq | shed -e "s/LO:DY:(a|b|rj)/LO:dy:$1/L" | shed -e "s/TX(.*):t=P:/tx$1:t=P:/LG" | modori -m | autostem -r | shed -e "s/yy//" | shed -k -e "s/\(y([^y])/($1/" | shed -e "s/-//B" | shed -e "s/^(\d+[\/\\]right)/$1yy/I; s/^(\d+[\/\\]left)/$1yy/I" | shed -e "s/^(X?)rep$/$1REP/I" | shed -k -e "s/[<>]//g" | shed -e "s/^custos:/Xcustos:/I" | shed -k -e "s/:TUP:/:tup:/L" | shed -k -e "s/r[a-gA-G]+/r/D" | rid -li
!!!ENC: Filip Voros
!!!END: 2022-06-28
!!!EED: Jan Barakat
!!!EEV: 2022-07-15
!!!EED-modern: Antoni Szymański
!!!END-modern: 2022-08-08
!!!ENC-iiif: Zuzanna Daniec
!!!END-iiif: 2022-10-09
